src/lib/packages/icons/src/assets/line/chart-bar.svg

<svg xmlns="http://www.w3.org/2000/svg" width="24" height="24" fill="none"><path fill="currentColor" d="M21.75 21a.75.75 0 0 1-.75.75H3a.75.75 0 0 1 0-1.5h18a.75.75 0 0 1 .75.75Zm-12.5-4.5v-12c0-1.409.841-2.25 2.25-2.25h1c1.409 0 2.25.841 2.25 2.25v12c0 1.409-.841 2.25-2.25 2.25h-1c-1.409 0-2.25-.841-2.25-2.25Zm1.5 0c0 .589.161.75.75.75h1c.589 0 .75-.161.75-.75v-12c0-.589-.161-.75-.75-.75h-1c-.589 0-.75.161-.75.75v12Zm11-8v8c0 1.409-.841 2.25-2.25 2.25h-1c-1.409 0-2.25-.841-2.25-2.25v-8c0-1.409.841-2.25 2.25-2.25h1c1.409 0 2.25.841 2.25 2.25Zm-1.5 0c0-.589-.161-.75-.75-.75h-1c-.589 0-.75.161-.75.75v8c0 .589.161.75.75.75h1c.589 0 .75-.161.75-.75v-8Zm-18 8v-5c0-1.409.841-2.25 2.25-2.25h1c1.409 0 2.25.841 2.25 2.25v5c0 1.409-.841 2.25-2.25 2.25h-1c-1.409 0-2.25-.841-2.25-2.25Zm1.5 0c0 .589.161.75.75.75h1c.589 0 .75-.161.75-.75v-5c0-.589-.161-.75-.75-.75h-1c-.589 0-.75.161-.75.75v5Z"/></svg>

<svg width="24" height="24" viewBox="0 0 24 24" fill="none" xmlns="http://www.w3.org/2000/svg">
<path d="M21.75 21C21.75 21.414 21.414 21.75 21 21.75H3C2.586 21.75 2.25 21.414 2.25 21C2.25 20.586 2.586 20.25 3 20.25H21C21.414 20.25 21.75 20.586 21.75 21ZM9.25 16.5V4.5C9.25 3.091 10.091 2.25 11.5 2.25H12.5C13.909 2.25 14.75 3.091 14.75 4.5V16.5C14.75 17.909 13.909 18.75 12.5 18.75H11.5C10.091 18.75 9.25 17.909 9.25 16.5ZM10.75 16.5C10.75 17.089 10.911 17.25 11.5 17.25H12.5C13.089 17.25 13.25 17.089 13.25 16.5V4.5C13.25 3.911 13.089 3.75 12.5 3.75H11.5C10.911 3.75 10.75 3.911 10.75 4.5V16.5ZM21.75 8.5V16.5C21.75 17.909 20.909 18.75 19.5 18.75H18.5C17.091 18.75 16.25 17.909 16.25 16.5V8.5C16.25 7.091 17.091 6.25 18.5 6.25H19.5C20.909 6.25 21.75 7.091 21.75 8.5ZM20.25 8.5C20.25 7.911 20.089 7.75 19.5 7.75H18.5C17.911 7.75 17.75 7.911 17.75 8.5V16.5C17.75 17.089 17.911 17.25 18.5 17.25H19.5C20.089 17.25 20.25 17.089 20.25 16.5V8.5ZM2.25 16.5V11.5C2.25 10.091 3.091 9.25 4.5 9.25H5.5C6.909 9.25 7.75 10.091 7.75 11.5V16.5C7.75 17.909 6.909 18.75 5.5 18.75H4.5C3.091 18.75 2.25 17.909 2.25 16.5ZM3.75 16.5C3.75 17.089 3.911 17.25 4.5 17.25H5.5C6.089 17.25 6.25 17.089 6.25 16.5V11.5C6.25 10.911 6.089 10.75 5.5 10.75H4.5C3.911 10.75 3.75 10.911 3.75 11.5V16.5Z" fill="currentColor"/>
</svg>
